!!!OTL: WIE RUHEST DU SO STILLE
!!!ARE: Europa, Mitteleuropa, Deutschland
!!!SCT: B0221
!!!YEM: Copyright 1995, estate of Helmut Schaffrath.
**kern
*ICvox
*Ivox
*M4/4
*k[]
*C:
{4G
=1
4.G
8F
8G
8A
8B
8c
=2
4c
4B
4r}
{4G
=3
4.G
8A
8B
8c
8d
8e
=4
4d
4c
4r}
{4e
=5
4d
8B
8G
8A
8c
8B
8A
=6
2G
4r}
{4G
=7
4.G
8A
8B
8c
8d
8e
=8
4d
4B
4r}
{4G
=9
4G
8A
8B
8c
8d
8e
8f
=10
4e
4c
8r}
{8c
8c
8c
=11
4.d
8d
8c
8B
8A
8G
=12
2e
8r}
{8e
8f
8g
=13
8g
8f
8e
8d
4c
4B
=14
2c
4r}
==
!!!AGN: Jahreszeiten - Lied, Winter
!!!ONB: ESAC (Essen Associative Code) Database: BOEHME
!!!AMT: simple quadruple
!!!AIN: vox
!!!EED: Helmut Schaffrath
!!!EEV: 1.0
*-
